packages/astro-components-stencil/src/icons/swap-calls.svg

<svg width="24" height="24" viewBox="0 0 24 24" fill="none" xmlns="http://www.w3.org/2000/svg">
<path d="M17.65 4.35002L14.86 7.14002C14.54 7.46002 14.76 8.00002 15.21 8.00002H17V14.88C17 15.88 16.33 16.81 15.34 16.97C14.09 17.18 13 16.21 13 15V8.17002C13 6.08002 11.47 4.22002 9.39003 4.02002C7.01003 3.79002 5.00003 5.66002 5.00003 8.00002V15H3.21003C2.76003 15 2.54003 15.54 2.86003 15.85L5.65003 18.64C5.85003 18.84 6.16003 18.84 6.36003 18.64L9.15003 15.85C9.46003 15.54 9.24003 15 8.79003 15H7.00003V8.12002C7.00003 7.12002 7.67003 6.19002 8.66003 6.03002C9.91003 5.82002 11 6.79002 11 8.00002V14.83C11 16.92 12.53 18.78 14.61 18.98C16.99 19.21 19 17.34 19 15V8.00002H20.79C21.24 8.00002 21.46 7.46002 21.14 7.15002L18.35 4.36002C18.16 4.16002 17.84 4.16002 17.65 4.35002Z" fill="black"/>
</svg>

<svg xmlns="http://www.w3.org/2000/svg" viewBox="0 0 24 24"><g xmlns="http://www.w3.org/2000/svg" id="swap-calls" fill-rule="nonzero">
            <path d="M17.65 4.35l-2.79 2.79c-.32.32-.1.86.35.86H17v6.88c0 1-.67 1.93-1.66 2.09-1.25.21-2.34-.76-2.34-1.97V8.17c0-2.09-1.53-3.95-3.61-4.15A3.998 3.998 0 005 8v7H3.21c-.45 0-.67.54-.35.85l2.79 2.79c.2.2.51.2.71 0l2.79-2.79a.5.5 0 00-.36-.85H7V8.12c0-1 .67-1.93 1.66-2.09C9.91 5.82 11 6.79 11 8v6.83c0 2.09 1.53 3.95 3.61 4.15C16.99 19.21 19 17.34 19 15V8h1.79c.45 0 .67-.54.35-.85l-2.79-2.79c-.19-.2-.51-.2-.7-.01z"/>
        </g></svg>
